ui/StatusQ/src/assets/img/icons/arrow.svg

<svg fill="none" height="16" viewBox="0 0 16 16" width="16" xmlns="http://www.w3.org/2000/svg"><path d="m7.02006 4.35355c.19526-.19526.19526-.51184 0-.7071-.19527-.19527-.51185-.19527-.70711 0l-4 4c-.19526.19526-.19526.51184 0 .7071l4 4.00005c.19526.1952.51184.1952.70711 0 .19526-.1953.19526-.5119 0-.7072l-2.57741-2.57736c-.20999-.20999-.06127-.56904.2357-.56904h8.65485c.2761 0 .5-.22386.5-.5s-.2239-.5-.5-.5h-8.65485c-.29697 0-.44569-.35905-.2357-.56904z" fill="#4360df"/></svg>

<svg width="16" height="16" viewBox="0 0 16 16" fill="none" xmlns="http://www.w3.org/2000/svg">
<path d="M7.02006 4.35355C7.21532 4.15829 7.21532 3.84171 7.02006 3.64645C6.82479 3.45118 6.50821 3.45118 6.31295 3.64645L2.31295 7.64645C2.11769 7.84171 2.11769 8.15829 2.31295 8.35355L6.31295 12.3536C6.50821 12.5488 6.82479 12.5488 7.02006 12.3536C7.21532 12.1583 7.21532 11.8417 7.02006 11.6464L4.44265 9.06904C4.23266 8.85905 4.38138 8.5 4.67835 8.5H13.3332C13.6093 8.5 13.8332 8.27614 13.8332 8C13.8332 7.72386 13.6093 7.5 13.3332 7.5H4.67835C4.38138 7.5 4.23266 7.14095 4.44265 6.93096L7.02006 4.35355Z" fill="#4360DF"/>
</svg>
